svgs/sharp-thin/folder.svg

<svg xmlns="http://www.w3.org/2000/svg" viewBox="0 0 512 512"><!--! Font Awesome Pro 6.6.0 by @fontawesome - https://fontawesome.com License - https://fontawesome.com/license (Commercial License) Copyright 2024 Fonticons, Inc. --><path d="M272 96L224 32 16 32 0 32 0 48 0 464l0 16 16 0 480 0 16 0 0-16 0-352 0-16-16 0L272 96zm224 16l0 352L16 464 16 48l200 0 43.2 57.6L264 112l8 0 224 0z"/></svg>

<svg xmlns="http://www.w3.org/2000/svg" viewBox="0 0 512 512"><!--! Font Awesome Pro 6.5.2 by @fontawesome - https://fontawesome.com License - https://fontawesome.com/license (Commercial License) Copyright 2024 Fonticons, Inc. --><path d="M272 96L224 32H16 0V48 464v16H16 496h16V464 112 96H496 272zm224 16V464H16V48H216l43.2 57.6L264 112h8H496z"/></svg>
